img/icons/main-logo.svg

<svg width="217" height="82" viewBox="0 0 217 82" fill="none" xmlns="http://www.w3.org/2000/svg">
<path d="M98.5137 57.4027H100.207V70.1456H98.5137V57.4027Z" fill="white"/>
<path d="M110.459 68.9987C109.524 69.9211 108.389 70.3823 107.054 70.3823C105.719 70.3823 104.585 69.9211 103.65 68.9987C102.728 68.0764 102.267 66.9417 102.267 65.5946C102.267 64.2474 102.728 63.1127 103.65 62.1904C104.585 61.268 105.719 60.8069 107.054 60.8069C108.389 60.8069 109.524 61.268 110.459 62.1904C111.393 63.1127 111.86 64.2474 111.86 65.5946C111.86 66.9417 111.393 68.0764 110.459 68.9987ZM107.054 68.8349C107.965 68.8349 108.729 68.5254 109.348 67.9065C109.967 67.2875 110.277 66.5169 110.277 65.5946C110.277 64.6722 109.967 63.9016 109.348 63.2826C108.729 62.6637 107.965 62.3542 107.054 62.3542C106.156 62.3542 105.398 62.6637 104.779 63.2826C104.16 63.9016 103.85 64.6722 103.85 65.5946C103.85 66.5169 104.16 67.2875 104.779 67.9065C105.398 68.5254 106.156 68.8349 107.054 68.8349Z" fill="white"/>
<path d="M122.047 57.4027V59.0046H118.278V70.1456H116.604V59.0046H112.854V57.4027H122.047Z" fill="white"/>
<path d="M132.897 57.4027C134.074 57.4027 135.051 57.7971 135.828 58.5859C136.617 59.3627 137.011 60.3335 137.011 61.4986C137.011 62.6515 136.617 63.6224 135.828 64.4113C135.051 65.2001 134.074 65.5946 132.897 65.5946H129.966V70.1456H128.273V57.4027H132.897ZM132.897 64.0108C133.601 64.0108 134.184 63.7741 134.645 63.3008C135.106 62.8154 135.337 62.2146 135.337 61.4986C135.337 60.7704 135.106 60.1697 134.645 59.6964C134.184 59.2231 133.601 58.9864 132.897 58.9864H129.966V64.0108H132.897Z" fill="white"/>
<path d="M140.704 68.5436H146.202V70.1456H139.011V57.4027H140.704V68.5436Z" fill="white"/>
<path d="M156.647 70.1456L155.61 67.2875H149.875L148.838 70.1456H147.036L151.787 57.4027H153.698L158.45 70.1456H156.647ZM150.458 65.7038H155.027L152.733 59.4233L150.458 65.7038Z" fill="white"/>
<path d="M167.184 57.4027V59.0046H163.416V70.1456H161.741V59.0046H157.991V57.4027H167.184Z" fill="white"/>
<path d="M176.196 59.0046H170.552V63.137H175.959V64.739H170.552V70.1456H168.859V57.4027H176.196V59.0046Z" fill="white"/>
<path d="M188.841 68.4526C187.566 69.739 186.007 70.3823 184.162 70.3823C182.318 70.3823 180.758 69.739 179.484 68.4526C178.21 67.1662 177.572 65.6067 177.572 63.7741C177.572 61.9294 178.21 60.37 179.484 59.0957C180.758 57.8092 182.318 57.166 184.162 57.166C186.007 57.166 187.566 57.8092 188.841 59.0957C190.127 60.37 190.77 61.9294 190.77 63.7741C190.77 65.6067 190.127 67.1662 188.841 68.4526ZM180.649 67.3058C181.596 68.2524 182.767 68.7257 184.162 68.7257C185.558 68.7257 186.723 68.2524 187.658 67.3058C188.604 66.347 189.077 65.1698 189.077 63.7741C189.077 62.3663 188.604 61.1891 187.658 60.2425C186.723 59.2838 185.558 58.8044 184.162 58.8044C182.767 58.8044 181.596 59.2838 180.649 60.2425C179.714 61.1891 179.247 62.3663 179.247 63.7741C179.247 65.1698 179.714 66.347 180.649 67.3058Z" fill="white"/>
<path d="M200.36 70.1456L197.502 65.2669H194.499V70.1456H192.806V57.4027H197.903C198.995 57.4027 199.93 57.791 200.706 58.5677C201.483 59.3323 201.871 60.2607 201.871 61.353C201.871 62.1782 201.623 62.9307 201.125 63.6103C200.64 64.2899 200.009 64.7693 199.232 65.0484L202.236 70.1456H200.36ZM194.499 58.9864V63.7377H197.903C198.534 63.7377 199.068 63.5071 199.505 63.046C199.954 62.5727 200.178 62.0083 200.178 61.353C200.178 60.6976 199.954 60.1394 199.505 59.6782C199.068 59.217 198.534 58.9864 197.903 58.9864H194.499Z" fill="white"/>
<path d="M215.858 57.4027V70.1456H214.183V60.1879L210.015 67.1237H209.796L205.627 60.2061V70.1456H203.934V57.4027H205.846L209.905 64.1382L213.947 57.4027H215.858Z" fill="white"/>
<path d="M115.394 47.0924C110.657 47.0924 106.744 45.5183 103.656 42.3701C100.568 39.2218 99.0234 35.339 99.0234 30.7215C99.0234 26.0741 100.568 22.1912 103.656 19.073C106.744 15.9247 110.657 14.3506 115.394 14.3506C118.243 14.3506 120.866 15.0252 123.265 16.3745C125.694 17.6937 127.583 19.4927 128.932 21.7715L123.58 24.8748C122.8 23.4655 121.691 22.3711 120.252 21.5916C118.812 20.782 117.193 20.3772 115.394 20.3772C112.336 20.3772 109.862 21.3367 107.973 23.2557C106.115 25.1746 105.185 27.6632 105.185 30.7215C105.185 33.7498 106.115 36.2235 107.973 38.1424C109.862 40.0613 112.336 41.0208 115.394 41.0208C117.193 41.0208 118.812 40.631 120.252 39.8515C121.721 39.0419 122.83 37.9475 123.58 36.5683L128.932 39.6716C127.583 41.9503 125.709 43.7643 123.31 45.1135C120.911 46.4328 118.273 47.0924 115.394 47.0924Z" fill="white"/>
<path d="M144.483 47.0924C140.975 47.0924 138.097 46.103 135.848 44.1241C133.599 42.1452 132.475 39.4917 132.475 36.1635V14.9802H138.636V35.6688C138.636 37.3179 139.101 38.6221 140.031 39.5816C140.99 40.5411 142.474 41.0208 144.483 41.0208C146.492 41.0208 147.961 40.5411 148.891 39.5816C149.85 38.6221 150.33 37.3179 150.33 35.6688V14.9802H156.536V36.1635C156.536 39.4917 155.412 42.1452 153.163 44.1241C150.914 46.103 148.021 47.0924 144.483 47.0924Z" fill="white"/>
<path d="M181.152 30.1368C183.911 31.726 185.29 34.1246 185.29 37.3329C185.29 40.0014 184.345 42.1902 182.456 43.8992C180.567 45.6083 178.244 46.4628 175.485 46.4628H162.128V14.9802H174.541C177.239 14.9802 179.503 15.8198 181.332 17.4988C183.191 19.1479 184.12 21.2618 184.12 23.8403C184.12 26.4489 183.131 28.5477 181.152 30.1368ZM174.541 20.782H168.334V27.7082H174.541C175.5 27.7082 176.295 27.3784 176.924 26.7187C177.584 26.0591 177.914 25.2346 177.914 24.2451C177.914 23.2557 177.599 22.4311 176.969 21.7715C176.34 21.1118 175.53 20.782 174.541 20.782ZM175.485 40.661C176.535 40.661 177.404 40.3162 178.094 39.6266C178.783 38.907 179.128 38.0075 179.128 36.9281C179.128 35.8787 178.783 35.0091 178.094 34.3195C177.404 33.5999 176.535 33.2401 175.485 33.2401H168.334V40.661H175.485Z" fill="white"/>
<path d="M209.597 46.4628L207.709 40.7959H195.16L193.272 46.4628H186.57L197.589 14.9802H205.28L216.344 46.4628H209.597ZM197.139 34.9942H205.775L201.457 22.1313L197.139 34.9942Z" fill="white"/>
<path d="M36.2668 0L71.5435 20.4726V60.5774L36.2668 81.9998L1 60.5173V20.3526L36.2668 0Z" fill="white"/>
<path d="M36.1652 24.375L50.5569 32.6832V49.2997L36.1652 57.6079L21.7736 49.2997V32.6832L36.1652 24.375Z" fill="#E6E6E6"/>
<path d="M36.3385 82L1.00098 60.5775L21.3468 49.3506L36.3385 57.9062L51.3302 49.3506L71.6761 60.5833L36.3385 82Z" fill="#EBEBEB"/>
<path d="M71.6735 20.4228V60.5791L51.3276 49.3505V33.2728L36.3359 24.7354V6.86646e-05L71.6735 20.4228Z" fill="#D9D9D9"/>
<path d="M0.998383 20.4228V60.5791L21.3442 49.3505V33.2728L36.3359 24.7354V6.86646e-05L0.998383 20.4228Z" fill="white"/>
<path d="M36.3393 41.9062L51.331 49.3508L36.3393 57.9688L21.3477 49.3508L36.3393 41.9062Z" fill="#A9ACB0"/>
<path d="M36.3379 41.9059V24.7354L51.3296 33.2606V49.3505L36.3379 41.9059Z" fill="#BABABA"/>
<path d="M36.3379 41.9059V24.7354L21.3462 33.2606V49.3505L36.3379 41.9059Z" fill="#E6E6E6"/>
</svg>

<svg width="217" height="82" fill="none" xmlns="http://www.w3.org/2000/svg"><path d="M98.514 57.403h1.693v12.743h-1.693V57.403ZM110.459 68.999c-.935.922-2.07 1.383-3.405 1.383s-2.469-.46-3.404-1.383c-.922-.923-1.383-2.057-1.383-3.404 0-1.348.461-2.482 1.383-3.405.935-.922 2.069-1.383 3.404-1.383s2.47.461 3.405 1.383c.934.923 1.401 2.057 1.401 3.405 0 1.347-.467 2.481-1.401 3.404Zm-3.405-.164c.911 0 1.675-.31 2.294-.928.619-.62.929-1.39.929-2.312 0-.923-.31-1.693-.929-2.312-.619-.62-1.383-.929-2.294-.929-.898 0-1.656.31-2.275.929s-.929 1.39-.929 2.312c0 .922.31 1.692.929 2.311.619.62 1.377.929 2.275.929ZM122.047 57.403v1.602h-3.769v11.14h-1.674v-11.14h-3.75v-1.602h9.193ZM132.897 57.403c1.177 0 2.154.394 2.931 1.183.789.777 1.183 1.748 1.183 2.913 0 1.152-.394 2.123-1.183 2.912-.777.79-1.754 1.184-2.931 1.184h-2.931v4.55h-1.693V57.404h4.624Zm0 6.608c.704 0 1.287-.237 1.748-.71.461-.486.692-1.086.692-1.802 0-.729-.231-1.33-.692-1.803-.461-.473-1.044-.71-1.748-.71h-2.931v5.025h2.931ZM140.704 68.544h5.498v1.602h-7.191V57.403h1.693v11.14ZM156.647 70.146l-1.037-2.859h-5.735l-1.037 2.859h-1.802l4.751-12.743h1.911l4.752 12.743h-1.803Zm-6.189-4.442h4.569l-2.294-6.28-2.275 6.28ZM167.184 57.403v1.602h-3.768v11.14h-1.675v-11.14h-3.75v-1.602h9.193ZM176.196 59.005h-5.644v4.132h5.407v1.602h-5.407v5.407h-1.693V57.403h7.337v1.602ZM188.841 68.453c-1.275 1.286-2.834 1.93-4.679 1.93-1.844 0-3.404-.644-4.678-1.93-1.274-1.287-1.912-2.846-1.912-4.679 0-1.845.638-3.404 1.912-4.678 1.274-1.287 2.834-1.93 4.678-1.93 1.845 0 3.404.643 4.679 1.93 1.286 1.274 1.929 2.833 1.929 4.678 0 1.833-.643 3.392-1.929 4.679Zm-8.192-1.147c.947.946 2.118 1.42 3.513 1.42 1.396 0 2.561-.474 3.496-1.42.946-.959 1.419-2.136 1.419-3.532 0-1.408-.473-2.585-1.419-3.532-.935-.958-2.1-1.438-3.496-1.438-1.395 0-2.566.48-3.513 1.438-.935.947-1.402 2.124-1.402 3.532 0 1.396.467 2.573 1.402 3.532ZM200.36 70.146l-2.858-4.88h-3.003v4.88h-1.693V57.403h5.097c1.092 0 2.027.388 2.803 1.165.777.764 1.165 1.693 1.165 2.785a3.73 3.73 0 0 1-.746 2.257 3.894 3.894 0 0 1-1.893 1.438l3.004 5.098h-1.876Zm-5.861-11.16v4.752h3.404c.631 0 1.165-.23 1.602-.692a2.375 2.375 0 0 0 .673-1.693c0-.655-.224-1.214-.673-1.675a2.123 2.123 0 0 0-1.602-.692h-3.404ZM215.858 57.403v12.743h-1.675v-9.958l-4.168 6.936h-.219l-4.169-6.918v9.94h-1.693V57.403h1.912l4.059 6.735 4.042-6.735h1.911ZM115.394 47.092c-4.737 0-8.65-1.574-11.738-4.722-3.088-3.148-4.633-7.031-4.633-11.648 0-4.648 1.545-8.53 4.633-11.649 3.088-3.148 7.001-4.722 11.738-4.722 2.849 0 5.472.674 7.871 2.024 2.429 1.319 4.318 3.118 5.667 5.396l-5.352 3.104a8.166 8.166 0 0 0-3.328-3.283c-1.44-.81-3.059-1.215-4.858-1.215-3.058 0-5.532.96-7.421 2.879-1.858 1.919-2.788 4.407-2.788 7.465 0 3.029.93 5.503 2.788 7.421 1.889 1.92 4.363 2.879 7.421 2.879 1.799 0 3.418-.39 4.858-1.17 1.469-.81 2.578-1.904 3.328-3.283l5.352 3.104c-1.349 2.278-3.223 4.092-5.622 5.442-2.399 1.319-5.037 1.978-7.916 1.978ZM144.483 47.092c-3.508 0-6.386-.989-8.635-2.968-2.249-1.979-3.373-4.632-3.373-7.96V14.98h6.161V35.67c0 1.649.465 2.953 1.395 3.913.959.96 2.443 1.439 4.452 1.439s3.478-.48 4.408-1.44c.959-.959 1.439-2.263 1.439-3.912V14.98h6.206v21.183c0 3.329-1.124 5.982-3.373 7.961s-5.142 2.968-8.68 2.968ZM181.152 30.137c2.759 1.589 4.138 3.988 4.138 7.196 0 2.668-.945 4.857-2.834 6.566-1.889 1.71-4.212 2.564-6.971 2.564h-13.357V14.98h12.413c2.698 0 4.962.84 6.791 2.519 1.859 1.649 2.788 3.763 2.788 6.341 0 2.609-.989 4.708-2.968 6.297Zm-6.611-9.355h-6.207v6.926h6.207c.959 0 1.754-.33 2.383-.99.66-.659.99-1.483.99-2.473 0-.99-.315-1.814-.945-2.474-.629-.66-1.439-.989-2.428-.989Zm.944 19.879c1.05 0 1.919-.345 2.609-1.034.689-.72 1.034-1.62 1.034-2.699 0-1.05-.345-1.919-1.034-2.608-.69-.72-1.559-1.08-2.609-1.08h-7.151v7.421h7.151ZM209.597 46.463l-1.888-5.667H195.16l-1.888 5.667h-6.702l11.019-31.483h7.691l11.064 31.483h-6.747Zm-12.458-11.469h8.636l-4.318-12.863-4.318 12.863ZM36.267 0l35.276 20.473v40.104L36.267 82 1 60.517V20.353L36.267 0Z" fill="#fff"/><path d="m36.165 24.375 14.392 8.308V49.3l-14.392 8.308L21.774 49.3V32.683l14.391-8.308Z" fill="#E6E6E6"/><path d="M36.339 82 1 60.578 21.347 49.35l14.992 8.555 14.991-8.555 20.346 11.232L36.34 82Z" fill="#EBEBEB"/><path d="M71.674 20.423v40.156L51.328 49.35V33.273l-14.992-8.538V0l35.338 20.423Z" fill="#D9D9D9"/><path d="M.998 20.423v40.156L21.344 49.35V33.273l14.992-8.538V0L.998 20.423Z" fill="#fff"/><path d="m36.34 41.906 14.991 7.445-14.992 8.618-14.991-8.618 14.991-7.445Z" fill="#A9ACB0"/><path d="M36.338 41.906v-17.17L51.33 33.26v16.09l-14.992-7.445Z" fill="#BABABA"/><path d="M36.338 41.906v-17.17L21.346 33.26v16.09l14.992-7.445Z" fill="#E6E6E6"/></svg>
